packages/katcn/src/icons/svg/card.svg

<svg width="24" height="25" viewBox="0 0 24 25" fill="none" xmlns="http://www.w3.org/2000/svg">
<path d="M16.7 22.312H7.3C5.5 22.312 4 20.812 4 18.812V5.81201C4 3.81201 5.5 2.31201 7.3 2.31201H12.2C13.3 2.31201 14.4 2.81201 15.1 3.61201L18.7 7.41201C19.6 8.21201 20 9.31201 20 10.412V18.912C20 20.812 18.5 22.312 16.7 22.312ZM7.3 4.31201C6.6 4.31201 6 5.01201 6 5.81201V18.912C6 19.612 6.6 20.312 7.3 20.312H16.6C17.3 20.312 17.9 19.612 17.9 18.812V10.412C17.9 9.81201 17.7 9.21201 17.3 8.81201L13.7 4.91201C13.3 4.51201 12.8 4.31201 12.3 4.31201H7.3Z" fill="black"/>
<path d="M14.6 18.312H9.40001C8.50001 18.312 7.70001 17.612 7.70001 16.612V13.312C7.70001 12.412 8.40001 11.612 9.40001 11.612H14.6C15.5 11.612 16.3 12.312 16.3 13.312V16.612C16.3 17.612 15.5 18.312 14.6 18.312ZM9.70001 16.312H14.2V13.712H9.70001V16.312Z" fill="black"/>
</svg>

<svg xmlns="http://www.w3.org/2000/svg" fill="none" viewBox="0 0 24 25"><path fill="#000" d="M16.7 22.312H7.3c-1.8 0-3.3-1.5-3.3-3.5v-13c0-2 1.5-3.5 3.3-3.5h4.9c1.1 0 2.2.5 2.9 1.3l3.6 3.8c.9.8 1.3 1.9 1.3 3v8.5c0 1.9-1.5 3.4-3.3 3.4m-9.4-18c-.7 0-1.3.7-1.3 1.5v13.1c0 .7.6 1.4 1.3 1.4h9.3c.7 0 1.3-.7 1.3-1.5v-8.4c0-.6-.2-1.2-.6-1.6l-3.6-3.9c-.4-.4-.9-.6-1.4-.6z"/><path fill="#000" d="M14.6 18.312H9.4c-.9 0-1.7-.7-1.7-1.7v-3.3c0-.9.7-1.7 1.7-1.7h5.2c.9 0 1.7.7 1.7 1.7v3.3c0 1-.8 1.7-1.7 1.7m-4.9-2h4.5v-2.6H9.7z"/></svg>
